Adwaita++/mimetypes/16/text-x-ocaml.svg

<svg height="16" viewBox="0 0 16 16" width="16" xmlns="http://www.w3.org/2000/svg">
  <path d="m7.524565 15.994545c.023064-.003182.040307-.009824.046131-.017511.011962-.015713.006455-.05983-.011897-.095337-.015376-.029763-.017432-.05048-.005713-.057632.004363-.002793.046161-.007092.092892-.009788.09552-.005573.143018-.01819.179203-.047638.053645-.043643.062532-.110261.024712-.185246-.029618-.058725-.08401-.12748-.15123-.191184-.10546-.099927-.192495-.155665-.305509-.195665-.091176-.032277-.106839-.046217-.124299-.110674-.004088-.015082-.01965-.0451-.034583-.066678-.047547-.068732-.071444-.177305-.090826-.412654-.021113-.256357-.02514-.422963-.028624-1.183838l-.003548-.777086.040464-.079745c.07394-.145731.141405-.292471.159298-.346472.030215-.091196.045519-.186375.065396-.406752.036501-.404675.076418-.530832.396651-1.253577.269659-.608597.442816-1.029168.549067-1.333601.098316-.281688.179493-.447067.25431-.518106.02705-.025671.066157-.045331.090223-.045331.039186 0 .099105.051075.14863.126691.048439.073953.151471.289351.21884.457499.121012.302028.21751.606521.307283.969594.116521.471245.180562.660644.323497.956709.10488.217244.120429.268537.143378.472897.027019.240631.079312.434645.159682.592459.03157.061979.057204.098603.103741.148221.05756.06136.064533.07405.087895.160024.011959.044008.060625.210541.108145.370079.136094.45688.223456.776443.323551 1.183559.057973.235798.103448.400777.146837.532714.046518.14147.049651.17354.029723.304129-.016669.109229-.01473.175981.007402.254803.040677.144881.134693.23218.292875.271973.121455.030565.202802.036005.54061.036369.332189.000316.375035-.002392.460145-.030079.049335-.016004.091814-.049921.105812-.084456.005611-.013856.012396-.048331.015082-.076661.00595-.062684.012203-.069605.05356-.059332.034114.008476.058032.002392.083858-.021287.067205-.0617.070779-.247857.00595-.309776-.05034-.048075-.130245-.064699-.359592-.074766-.236384-.010382-.318346-.027699-.434515-.091718-.070245-.038713-.123699-.085513-.143291-.125465-.008073-.016466-.021979-.06612-.0309-.110358-.008919-.044238-.024133-.103437-.033805-.131536-.02472-.071852-.119684-.263158-.229312-.461943-.166019-.301045-.221705-.432921-.286959-.6796-.02277-.086059-.082164-.296831-.131989-.468355-.049824-.171536-.096964-.342574-.104756-.380085-.020287-.097656-.023129-.192301-.012433-.413576.011271-.233103.011336-.403303.000192-.471452-.004499-.027492-.023194-.102513-.041541-.166691-.049008-.171439-.05629-.223035-.056475-.400085-.000224-.202769.01648-.363898.090487-.873503.075832-.522174.094242-.709837.099105-1.010201.002016-.124688.005729-.228913.008245-.231609.002499-.002793.164067-.06017.359007-.127699.194941-.067529.396999-.138252.449018-.157147.451531-.164068.66588-.280874.889868-.484954.513857-.468173.842914-1.142126 1.149424-2.354172.150242-.594099.21915-.973504.254036-1.39869.006688-.081487.015058-.261991.027341-.589417.015106-.402684.037763-.480686.236482-.814196.083581-.140267.166831-.297158.196369-.370073.01189-.029326.028777-.08935.037534-.133357.008757-.044008.018839-.086619.022402-.094688.007318-.016551.172034-.098209.307709-.152526.101493-.040637.303276-.139192.361424-.176533.024145-.015519.066707-.046314.09458-.068458.027873-.022161.054105-.042793.058291-.045883.004607-.003582.04053.009071.091179.031676.045961.020528.109418.045179.141014.054796.053226.016199.06688.017511.185808.01779.144486.000316.198692-.009514.290497-.052878.101761-.048051.132382-.085786.145574-.179393.012561-.08915-.000766-.138597-.057727-.21479-.014368-.019223-.007777-.031634.031592-.059545.054-.038282.062938-.064778.062938-.186485 0-.130006-.002862-.136259-.113138-.248852-.098338-.100389-.177804-.203163-.2355-.30459-.10695-.188009-.144201-.237645-.196867-.262308-.059957-.028093-.214092-.038798-.687047-.047844-.496485-.009472-.654216-.020735-.800853-.057165-.120809-.030006-.192537-.070297-.330494-.185647-.091898-.07683-.102973-.079921-.287711-.080236-.164199-.00031-.262666.008038-.405347.034183-.10843.019854-.17294.021524-.219561.005689-.018583-.006327-.071781-.02881-.118227-.049988-.046446-.021172-.099648-.04326-.118226-.049071-.131956-.041245-.249393-.026424-.349548.044117-.091717.064602-.153773.149842-.275333.378227-.04197.078846-.112934.207869-.157697.286721-.170969.301154-.224988.463346-.23207.696801-.005463.179964.009623.253801.105118.514596.051618.140972.05155.140249.051524.54895-.000014.234147-.003103.402538-.008704.473425-.030268.383789-.066011.696837-.106209.930188-.041861.243012-.070088.322751-.138246.390499-.085759.085258-.20748.112932-.496712.112932-.244364 0-.355119-.017468-.469646-.074056-.18858-.093175-.424504-.324796-.632119-.620571-.087823-.125124-.165978-.251421-.291362-.470844-.365441-.639539-.560846-.883-.952566-1.186843-.236034-.183079-.354187-.357238-.451121-.664949-.098574-.31292-.247172-.537438-.484234-.731633-.285499-.233874-.531587-.313795-.96833-.314481-.177656-.000316-.254555.00728-.369917.036369-.242053.061002-.405549.183485-.504104.377662-.037675.074226-.05773.153243-.129981.512077-.07297.362417-.113133.50201-.188013.653461-.052183.10555-.10901.183012-.200228.272933-.110529.108956-.186996.146345-.254403.12439-.055369-.018027-.084067-.064566-.290301-.470668-.189611-.37337-.239882-.467669-.316967-.59456-.133077-.219065-.244288-.318379-.395786-.353455-.043527-.010067-.080007-.012095-.211367-.011658-.183217.000796-.204167.004457-.341167.062502-.359553.152368-.638902.378051-.726003.586527-.046202.110583-.224584.662168-.330695 1.022557-.060507.205501-.084886.272374-.136046.373206-.064518.127152-.098372.169781-.263506.331821-.108402.106375-.170455.173315-.213251.230049-.156042.206855-.29201.452732-.454408.821718-.24659.56028-.332146.847997-.359196 1.207955-.011574.154025-.00464.501688.017251.864226.021762.36051.020887.511536-.003387.586788-.017892.055435-.071398.162842-.111279.223376-.053334.08096-.084776.106242-.331197.266315-.087624.056916-.167703.115021-.209429.151949-.174992.154876-.290238.349654-.305206.515835-.004938.054863.005705.091123.028418.096758.04323.010698.29442-.106715.603533-.282138.162146-.092009.258097-.153211.378395-.241335.12181-.089241.161242-.113455.193053-.118543.018843-.003182.024076-.00119.031066.011852.041022.075665.206318.741943.340428 1.372216.120187.564846.145444.760681.145577 1.128793.000096.28952-.018589.492945-.064777.704918-.040466.185707-.045268.238822-.041065.454171.00387.197377.011566.306995.061713.876843.048279.548622.057356.776394.044771 1.123547-.014308.394645-.070397 1.240875-.105628 1.593649-.022794.228234-.03934.308513-.090538.43926-.050168.128112-.068372.195179-.072629.267553-.006337.107699.018344.173455.092598.24674.092267.091062.222889.116527.516789.100716.398895-.021445.462252-.039393.442094-.125136-.010039-.042684-.007809-.067724.006721-.075398.007188-.003971.038347-.006922.069246-.006922.072803-.000061.132852-.009982.154101-.025464.009312-.006801.024527-.025586.033816-.041761.013872-.024153.016888-.038361.016868-.079429 0-.044408-.002661-.054852-.023645-.093346-.028244-.051828-.102082-.127432-.182385-.186752-.243989-.180243-.415394-.382174-.442219-.520984-.042715-.22102-.036038-.858737.016472-1.572714.028757-.391026.039477-.576843.047311-.820158.008095-.251658.013263-.280025.077627-.426752.034087-.077717.073495-.213771.101279-.349666.033361-.163182.039702-.214997.039642-.323801-.000063-.111913-.013566-.183231-.052806-.278896-.033529-.081736-.039436-.125221-.030393-.223667.023081-.251196.071586-.483777.145504-.697681.056396-.163194.105672-.27428.224328-.505695.163476-.318835.223982-.458264.247308-.569873.039984-.191305.046391-.575944.012631-.758118-.006454-.034863-.011607-.093358-.011442-.13003.000214-.05881.002581-.071646.019654-.108695.024459-.053078.072119-.097122.120425-.111281.064191-.018822.100142-.009836.141479.035373.050935.055714.088754.147651.170821.41524.084717.276236.209653.655447.344721 1.046291.301866.873504.373459 1.151646.455681 1.770322.06469.486764.114615.676163.267172 1.013541.048422.107079.228499.459138.344468.673455.237396.438725.359117.754208.469518 1.216916.068887.288719.112873.424942.177632.550103.030369.058701.043226.075155.107401.137438.080958.078579.082694.082659.058156.13677-.01157.025501-.015379.04918-.017682.1098-.00391.102999.006709.14102.049868.178518.040045.034779.142204.084408.201363.09779.057423.012981.217613.022647.380059.022927.126107.000206.2581.01003.26824.019939.009288.009071.000062.027966-.057653.118215-.069766.109059-.08643.14425-.086512.18272-.000095.040814.02837.095616.082699.159272.117951.13819.254641.196782.528632.226581.15843.017232.463957.024761.543512.01337zm-1.046392-1.303559c-.068396-.035495-.146724-.1-.27445-.226059-.13016-.128477-.180394-.188003-.26764-.317147-.169041-.250225-.294393-.58572-.474649-1.270359-.151931-.577061-.22665-.939502-.265284-1.286813-.016739-.150467-.01636-.647905.000645-.863497.01511-.191464.02173-.592678.011768-.71348-.004084-.049508-.012047-.136527-.017698-.193369-.03093-.311051-.023682-.840899.012936-.94583.006624-.01898.012591-.024833.026971-.026545.029346-.00357.10245.021652.231755.079539.198099.088658.336986.129496.498398.146533.163224.017219.375146-.014766.512416-.077377.028627-.013054.054582-.02221.057678-.020304.010764.00657.015021.107772.021161.503012.007801.502477.015199.610614.067649.989169.044618.322016.049553.378858.049943.575373.000395.195483-.005245.249824-.043565.420073-.037747.167724-.047472.257936-.047423.439952.000063.207675.020001.373333.071862.596928.128572.554329.14377 1.037657.050244 1.597973-.036972.221493-.122139.582064-.143483.607456-.011381.013527-.03103.009751-.079241-.01524z" fill="#474747"/>
</svg>

<svg xmlns="http://www.w3.org/2000/svg" style="isolation:isolate" width="16" height="16" viewBox="0 0 16 16">
 <defs>
  <style id="current-color-scheme" type="text/css">
   .ColorScheme-Text { color:#474747; } .ColorScheme-Highlight { color:#5294e2; }
  </style>
  <linearGradient id="arrongin" x1="0%" x2="0%" y1="0%" y2="100%">
   <stop offset="0%" style="stop-color:#dd9b44"/>
   <stop offset="100%" style="stop-color:#ad6c16"/>
  </linearGradient>
  <linearGradient id="aurora" x1="0%" x2="0%" y1="0%" y2="100%">
   <stop offset="0%" style="stop-color:#09D4DF"/>
   <stop offset="100%" style="stop-color:#9269F4"/>
  </linearGradient>
  <linearGradient id="fitdance" x1="0%" x2="0%" y1="0%" y2="100%">
   <stop offset="0%" style="stop-color:#1AD6AB"/>
   <stop offset="100%" style="stop-color:#329DB6"/>
  </linearGradient>
  <linearGradient id="oomox" x1="0%" x2="0%" y1="0%" y2="100%">
   <stop offset="0%" style="stop-color:#efefe7"/>
   <stop offset="100%" style="stop-color:#8f8f8b"/>
  </linearGradient>
  <linearGradient id="rainblue" x1="0%" x2="0%" y1="0%" y2="100%">
   <stop offset="0%" style="stop-color:#00F260"/>
   <stop offset="100%" style="stop-color:#0575E6"/>
  </linearGradient>
  <linearGradient id="sunrise" x1="0%" x2="0%" y1="0%" y2="100%">
   <stop offset="0%" style="stop-color:#FF8501"/>
   <stop offset="100%" style="stop-color:#FFCB01"/>
  </linearGradient>
  <linearGradient id="telinkrin" x1="0%" x2="0%" y1="0%" y2="100%">
   <stop offset="0%" style="stop-color:#b2ced6"/>
   <stop offset="100%" style="stop-color:#6da5b7"/>
  </linearGradient>
  <linearGradient id="60spsycho" x1="0%" x2="0%" y1="0%" y2="100%">
   <stop offset="0%" style="stop-color:#df5940"/>
   <stop offset="25%" style="stop-color:#d8d15f"/>
   <stop offset="50%" style="stop-color:#e9882a"/>
   <stop offset="100%" style="stop-color:#279362"/>
  </linearGradient>
  <linearGradient id="90ssummer" x1="0%" x2="0%" y1="0%" y2="100%">
   <stop offset="0%" style="stop-color:#f618c7"/>
   <stop offset="20%" style="stop-color:#94ffab"/>
   <stop offset="50%" style="stop-color:#fbfd54"/>
   <stop offset="100%" style="stop-color:#0f83ae"/>
  </linearGradient>
  <linearGradient id="cyberneon" x1="0%" x2="0%" y1="0%" y2="100%">
   <stop offset="0" style="stop-color:#0abdc6"/>
   <stop offset="1" style="stop-color:#ea00d9"/>
  </linearGradient>
 </defs>
 <path style="fill:currentColor" class="ColorScheme-Text" d="M 7.524565 15.994545 C 7.547629 15.991363 7.564872 15.984721 7.570696 15.977034 C 7.582658 15.961321 7.577151 15.917204 7.558799 15.881697 C 7.543423 15.851934 7.541367 15.831217 7.553086 15.824065 C 7.557449 15.821272 7.599247 15.816973 7.645978 15.814277 C 7.741498 15.808704 7.788996 15.796087 7.825181 15.766639 C 7.878826 15.722996 7.887713 15.656378 7.849893 15.581393 C 7.820275 15.522668 7.765883 15.453913 7.698663 15.390209 C 7.593203 15.290282 7.506168 15.234544 7.393154 15.194544 C 7.301978 15.162267 7.286315 15.148327 7.268855 15.08387 C 7.264767 15.068788 7.249205 15.03877 7.234272 15.017192 C 7.186725 14.94846 7.162828 14.839887 7.143446 14.604538 C 7.122333 14.348181 7.118306 14.181575 7.114822 13.4207 L 7.111274 12.643614 L 7.151738 12.563869 C 7.225678 12.418138 7.293143 12.271398 7.311036 12.217397 C 7.341251 12.126201 7.356555 12.031022 7.376432 11.810645 C 7.412933 11.40597 7.45285 11.279813 7.773083 10.557068 C 8.042742 9.948471 8.215899 9.5279 8.32215 9.223467 C 8.420466 8.941779 8.501643 8.7764 8.57646 8.705361 C 8.60351 8.67969 8.642617 8.66003 8.666683 8.66003 C 8.705869 8.66003 8.765788 8.711105 8.815313 8.786721 C 8.863752 8.860674 8.966784 9.076072 9.034153 9.24422 C 9.155165 9.546248 9.251663 9.850741 9.341436 10.213814 C 9.457957 10.685059 9.521998 10.874458 9.664933 11.170523 C 9.769813 11.387767 9.785362 11.43906 9.808311 11.64342 C 9.83533 11.884051 9.887623 12.078065 9.967993 12.235879 C 9.999563 12.297858 10.025197 12.334482 10.071734 12.3841 C 10.129294 12.44546 10.136267 12.45815 10.159629 12.544124 C 10.171588 12.588132 10.220254 12.754665 10.267774 12.914203 C 10.403868 13.371083 10.49123 13.690646 10.591325 14.097762 C 10.649298 14.33356 10.694773 14.498539 10.738162 14.630476 C 10.78468 14.771946 10.787813 14.804016 10.767885 14.934605 C 10.751216 15.043834 10.753155 15.110586 10.775287 15.189408 C 10.815964 15.334289 10.90998 15.421588 11.068162 15.461381 C 11.189617 15.491946 11.270964 15.497386 11.608772 15.49775 C 11.940961 15.498066 11.983807 15.495358 12.068917 15.467671 C 12.118252 15.451667 12.160731 15.41775 12.174729 15.383215 C 12.18034 15.369359 12.187125 15.334884 12.189811 15.306554 C 12.195761 15.24387 12.202014 15.236949 12.243371 15.247222 C 12.277485 15.255698 12.301403 15.249614 12.327229 15.225935 C 12.394434 15.164235 12.398008 14.978078 12.333179 14.916159 C 12.282839 14.868084 12.202934 14.85146 11.973587 14.841393 C 11.737203 14.831011 11.655241 14.813694 11.539072 14.749675 C 11.468827 14.710962 11.415373 14.664162 11.395781 14.62421 C 11.387708 14.607744 11.373802 14.55809 11.364881 14.513852 C 11.355962 14.469614 11.340748 14.410415 11.331076 14.382316 C 11.306356 14.310464 11.211392 14.119158 11.101764 13.920373 C 10.935745 13.619328 10.880059 13.487452 10.814805 13.240773 C 10.792035 13.154714 10.732641 12.943942 10.682816 12.772418 C 10.632992 12.600882 10.585852 12.429844 10.57806 12.392333 C 10.557773 12.294677 10.554931 12.200032 10.565627 11.978757 C 10.576898 11.745654 10.576963 11.575454 10.565819 11.507305 C 10.56132 11.479813 10.542625 11.404792 10.524278 11.340614 C 10.47527 11.169175 10.467988 11.117579 10.467803 10.940529 C 10.467579 10.73776 10.484283 10.576631 10.55829 10.067026 C 10.634122 9.544852 10.652532 9.357189 10.657395 9.056825 C 10.659411 8.932137 10.663124 8.827912 10.66564 8.825216 C 10.668139 8.822423 10.829707 8.765046 11.024647 8.697517 C 11.219588 8.629988 11.421646 8.559265 11.473665 8.54037 C 11.925196 8.376302 12.139545 8.259496 12.363533 8.055416 C 12.87739 7.587243 13.206447 6.91329 13.512957 5.701244 C 13.663199 5.107145 13.732107 4.72774 13.766993 4.302554 C 13.773681 4.221067 13.782051 4.040563 13.794334 3.713137 C 13.80944 3.310453 13.832097 3.232451 14.030816 2.898941 C 14.114397 2.758674 14.197647 2.601783 14.227185 2.528868 C 14.239075 2.499542 14.255962 2.439518 14.264719 2.395511 C 14.273476 2.351503 14.283558 2.308892 14.287121 2.300823 C 14.294439 2.284272 14.459155 2.202614 14.59483 2.148297 C 14.696323 2.10766 14.898106 2.009105 14.956254 1.971764 C 14.980399 1.956245 15.022961 1.92545 15.050834 1.903306 C 15.078707 1.881145 15.104939 1.860513 15.109125 1.857423 C 15.113732 1.853841 15.149655 1.866494 15.200304 1.889099 C 15.246265 1.909627 15.309722 1.934278 15.341318 1.943895 C 15.394544 1.960094 15.408198 1.961406 15.527126 1.961685 C 15.671612 1.962001 15.725818 1.952171 15.817623 1.908807 C 15.919384 1.860756 15.950005 1.823021 15.963197 1.729414 C 15.975758 1.640264 15.962431 1.590817 15.90547 1.514624 C 15.891102 1.495401 15.897693 1.48299 15.937062 1.455079 C 15.991062 1.416797 16 1.390301 16 1.268594 C 16 1.138588 15.997138 1.132335 15.886862 1.019742 C 15.788524 0.919353 15.709058 0.816579 15.651362 0.715152 C 15.544412 0.527143 15.507161 0.477507 15.454495 0.452844 C 15.394538 0.424751 15.240403 0.414046 14.767448 0.405 C 14.270963 0.395528 14.113232 0.384265 13.966595 0.347835 C 13.845786 0.317829 13.774058 0.277538 13.636101 0.162188 C 13.544203 0.085358 13.533128 0.082267 13.34839 0.081952 C 13.184191 0.081642 13.085724 0.08999 12.943043 0.116135 C 12.834613 0.135989 12.770103 0.137659 12.723482 0.121824 C 12.704899 0.115497 12.651701 0.093014 12.605255 0.071836 C 12.558809 0.050664 12.505607 0.028576 12.487029 0.022765 C 12.355073 -0.01848 12.237636 -0.003659 12.137481 0.066882 C 12.045764 0.131484 11.983708 0.216724 11.862148 0.445109 C 11.820178 0.523955 11.749214 0.652978 11.704451 0.73183 C 11.533482 1.032984 11.479463 1.195176 11.472381 1.428631 C 11.466918 1.608595 11.482004 1.682432 11.577499 1.943227 C 11.629117 2.084199 11.629049 2.083476 11.629023 2.492177 C 11.629009 2.726324 11.62592 2.894715 11.620319 2.965602 C 11.590051 3.349391 11.554308 3.662439 11.51411 3.89579 C 11.472249 4.138802 11.444022 4.218541 11.375864 4.286289 C 11.290105 4.371547 11.168384 4.399221 10.879152 4.399221 C 10.634788 4.399221 10.524033 4.381753 10.409506 4.325165 C 10.220926 4.23199 9.985002 4.000369 9.777387 3.704594 C 9.689564 3.57947 9.611409 3.453173 9.486025 3.23375 C 9.120584 2.594211 8.925179 2.35075 8.533459 2.046907 C 8.297425 1.863828 8.179272 1.689669 8.082338 1.381958 C 7.983764 1.069038 7.835166 0.84452 7.598104 0.650325 C 7.312605 0.416451 7.066517 0.33653 6.629774 0.335844 C 6.452118 0.335528 6.375219 0.343124 6.259857 0.372213 C 6.017804 0.433215 5.854308 0.555698 5.755753 0.749875 C 5.718078 0.824101 5.698023 0.903118 5.625772 1.261952 C 5.552802 1.624369 5.512639 1.763962 5.437759 1.915413 C 5.385576 2.020963 5.328749 2.098425 5.237531 2.188346 C 5.127002 2.297302 5.050535 2.334691 4.983128 2.312736 C 4.927759 2.294709 4.899061 2.24817 4.692827 1.842068 C 4.503216 1.468698 4.452945 1.374399 4.37586 1.247508 C 4.242783 1.028443 4.131572 0.929129 3.980074 0.894053 C 3.936547 0.883986 3.900067 0.881958 3.768707 0.882395 C 3.58549 0.883191 3.56454 0.886852 3.42754 0.944897 C 3.067987 1.097265 2.788638 1.322948 2.701537 1.531424 C 2.655335 1.642007 2.476953 2.193592 2.370842 2.553981 C 2.310335 2.759482 2.285956 2.826355 2.234796 2.927187 C 2.170278 3.054339 2.136424 3.096968 1.97129 3.259008 C 1.862888 3.365383 1.800835 3.432323 1.758039 3.489057 C 1.601997 3.695912 1.466029 3.941789 1.303631 4.310775 C 1.057041 4.871055 0.971485 5.158772 0.944435 5.51873 C 0.932861 5.672755 0.939795 6.020418 0.961686 6.382956 C 0.983448 6.743466 0.982573 6.894492 0.958299 6.969744 C 0.940407 7.025179 0.886901 7.132586 0.84702 7.19312 C 0.793686 7.27408 0.762244 7.299362 0.515823 7.459435 C 0.428199 7.516351 0.34812 7.574456 0.306394 7.611384 C 0.131402 7.76626 0.016156 7.961038 0.001188 8.127219 C -0.00375 8.182082 0.006893 8.218342 0.029606 8.223977 C 0.072836 8.234675 0.324026 8.117262 0.633139 7.941839 C 0.795285 7.84983 0.891236 7.788628 1.011534 7.700504 C 1.133344 7.611263 1.172776 7.587049 1.204587 7.581961 C 1.22343 7.578779 1.228663 7.580771 1.235653 7.593813 C 1.276675 7.669478 1.441971 8.335756 1.576081 8.966029 C 1.696268 9.530875 1.721525 9.72671 1.721658 10.094822 C 1.721754 10.384342 1.703069 10.587767 1.656881 10.79974 C 1.616415 10.985447 1.611613 11.038562 1.615816 11.253911 C 1.619686 11.451288 1.627382 11.560906 1.677529 12.130754 C 1.725808 12.679376 1.734885 12.907148 1.7223 13.254301 C 1.707992 13.648946 1.651903 14.495176 1.616672 14.84795 C 1.593878 15.076184 1.577332 15.156463 1.526134 15.28721 C 1.475966 15.415322 1.457762 15.482389 1.453505 15.554763 C 1.447168 15.662462 1.471849 15.728218 1.546103 15.801503 C 1.63837 15.892565 1.768992 15.91803 2.062892 15.902219 C 2.461787 15.880774 2.525144 15.862826 2.504986 15.777083 C 2.494947 15.734399 2.497177 15.709359 2.511707 15.701685 C 2.518895 15.697714 2.550054 15.694763 2.580953 15.694763 C 2.653756 15.694702 2.713805 15.684781 2.735054 15.669299 C 2.744366 15.662498 2.759581 15.643713 2.76887 15.627538 C 2.782742 15.603385 2.785758 15.589177 2.785738 15.548109 C 2.785738 15.503701 2.783077 15.493257 2.762093 15.454763 C 2.733849 15.402935 2.660011 15.327331 2.579708 15.268011 C 2.335719 15.087768 2.164314 14.885837 2.137489 14.747027 C 2.094774 14.526007 2.101451 13.88829 2.153961 13.174313 C 2.182718 12.783287 2.193438 12.59747 2.201272 12.354155 C 2.209367 12.102497 2.214535 12.07413 2.278899 11.927403 C 2.312986 11.849686 2.352394 11.713632 2.380178 11.577737 C 2.413539 11.414555 2.41988 11.36274 2.41982 11.253936 C 2.419757 11.142023 2.406254 11.070705 2.367014 10.97504 C 2.333485 10.893304 2.327578 10.849819 2.336621 10.751373 C 2.359702 10.500177 2.408207 10.267596 2.482125 10.053692 C 2.538521 9.890498 2.587797 9.779412 2.706453 9.547997 C 2.869929 9.229162 2.930435 9.089733 2.953761 8.978124 C 2.993745 8.786819 3.000152 8.40218 2.966392 8.220006 C 2.959938 8.185143 2.954785 8.126648 2.95495 8.089976 C 2.955164 8.031166 2.957531 8.01833 2.974604 7.981281 C 2.999063 7.928203 3.046723 7.884159 3.095029 7.87 C 3.15922 7.851178 3.195171 7.860164 3.236508 7.905373 C 3.287443 7.961087 3.325262 8.053024 3.407329 8.320613 C 3.492046 8.596849 3.616982 8.97606 3.75205 9.366904 C 4.053916 10.240408 4.125509 10.51855 4.207731 11.137226 C 4.272421 11.62399 4.322346 11.813389 4.474903 12.150767 C 4.523325 12.257846 4.703402 12.609905 4.819371 12.824222 C 5.056767 13.262947 5.178488 13.57843 5.288889 14.041138 C 5.357776 14.329857 5.401762 14.46608 5.466521 14.591241 C 5.49689 14.649942 5.509747 14.666396 5.573922 14.728679 C 5.65488 14.807258 5.656616 14.811338 5.632078 14.865449 C 5.620508 14.89095 5.616699 14.914629 5.614396 14.975249 C 5.610486 15.078248 5.621105 15.116269 5.664264 15.153767 C 5.704309 15.188546 5.806468 15.238175 5.865627 15.251557 C 5.92305 15.264538 6.08324 15.274204 6.245686 15.274484 C 6.371793 15.27469 6.503786 15.284514 6.513926 15.294423 C 6.523214 15.303494 6.513988 15.322389 6.456273 15.412638 C 6.386507 15.521697 6.369843 15.556888 6.369761 15.595358 C 6.369666 15.636172 6.398131 15.690974 6.45246 15.75463 C 6.570411 15.89282 6.707101 15.951412 6.981092 15.981211 C 7.139522 15.998443 7.445049 16.005972 7.524604 15.994581 L 7.524565 15.994545 Z M 6.478173 14.690986 C 6.409777 14.655491 6.331449 14.590986 6.203723 14.464927 C 6.073563 14.33645 6.023329 14.276924 5.936083 14.14778 C 5.767042 13.897555 5.64169 13.56206 5.461434 12.877421 C 5.309503 12.30036 5.234784 11.937919 5.19615 11.590608 C 5.179411 11.440141 5.17979 10.942703 5.196795 10.727111 C 5.211905 10.535647 5.218525 10.134433 5.208563 10.013631 C 5.204479 9.964123 5.196516 9.877104 5.190865 9.820262 C 5.159935 9.509211 5.167183 8.979363 5.203801 8.874432 C 5.210425 8.855452 5.216392 8.849599 5.230772 8.847887 C 5.260118 8.844317 5.333222 8.869539 5.462527 8.927426 C 5.660626 9.016084 5.799513 9.056922 5.960925 9.073959 C 6.124149 9.091178 6.336071 9.059193 6.473341 8.996582 C 6.501968 8.983528 6.527923 8.974372 6.531019 8.976278 C 6.541783 8.982848 6.54604 9.08405 6.55218 9.47929 C 6.559981 9.981767 6.567379 10.089904 6.619829 10.468459 C 6.664447 10.790475 6.669382 10.847317 6.669772 11.043832 C 6.670167 11.239315 6.664527 11.293656 6.626207 11.463905 C 6.58846 11.631629 6.578735 11.721841 6.578784 11.903857 C 6.578847 12.111532 6.598785 12.27719 6.650646 12.500785 C 6.779218 13.055114 6.794416 13.538442 6.70089 14.098758 C 6.663918 14.320251 6.578751 14.680822 6.557407 14.706214 C 6.546026 14.719741 6.526377 14.715965 6.478166 14.690974 L 6.478173 14.690986 Z"/>
</svg>
